X:1
T:Aupres de vous
T:Joannes de Latre
T:Source : La fleur des chansons à 3---Louvain---P.Phalèse---1574. Editor : André Vierendeels (18/09/18) Notes : Original clefs : C1, C1, C4 Original note values have been halved Editorial accidentals above the staff Called "Petit Jean" in original print 
T:Aupres de vous
T:©
T:©
T:©
T:©
T:©
T:©
C:Joannes de Latre
Z:©
%%score [ 1 2 3 ]
L:1/8
Q:1/4=120
M:2/2
K:C
V:1 treble nm="Alto 1" snm="S 1"
V:2 treble nm="Alto 2" snm="S 2"
V:3 treble-8 nm="Tenor" snm="T"
V:1
 z8 | z8 | z4 c4- | c4 B4- | B2 B2 A3 B | cd c3 BBA/G/ | A4 G4 | z2 G2 A2 A2 | c2 c2 B4 | %9
w: ||Au-|* pres|_ de vous _|_ _ _ _ _ _ _||se- cre- te-|ment de- meu-|
 A2 d3 c c2- | c2 B2 c4 | z2 G2 G2 G2 | A3 B c2 B2- | BAGF EDCB, | A,2 D2 D2 D2 | E2 B,2 C2 D2 | %16
w: |* * re,|se- cre- te-|ment de- meu- *||re, se- cre- te-|ment de- meu- *|
 E4 G4 | G2 G2 A3 B | c2 B3 AGF | EDCB, A,2 A2- | AG G2 A2 c2 | c2 c2 B2 E2 | D2 E3 D D2 | %23
w: |re, se- cre- te-|ment de- * * *|* * * * * meu-|* * re, mon pou-|vre coeur, mon pou-|vre coeur, _ _|
 EFGA B4- | B4 z2 E2 | E2 E2 G2 G2 | G2 G2 A2 A2 | G3 F E2 A2 | G2 F3 E E2- | E2 D2 E4- | E8- | %31
w: _ _ _ _ _|* mon|pou- vre coeur, sans|que nul le con-|for- * * *||* * te,|_|
 E4 z2 E2 | E2 E2 G2 FE | DEFD E2 A2 | A2 A2 c2 BA | G2 D2 E3 D/C/ | D2 D2 C4 | z2 G2 A2 A2 | %38
w: * et|si lan- guis, _ _|_ _ _ _ _ et|si lan- guis, _ _|_ et si _ _|_ lan- guis,|pour la dou-|
 G6 F2 | EFGA Bc d2- | dc c4 B2 | c4 z2 c2- | c2 B4 B2 | A3 B cd c2- | cBAG A4 | G8 | z4 c4- | %47
w: leur qu'il|por- * * * * * *||te, puis-|* que vou-|lez, _ _ _ _|_ _ _ _ _||puis-|
 c4 B4- | B2 B2 A3 B | cd c3 BAG | A4 G4 | z2 G2 A2 A2 | c2 c2 B4 | A2 d3 c c2- | c2 B2 c4 | %55
w: * que|_ vou- lez, _|_ _ _ _ _ _||qu'en ce tour-|ment il meu-||* * re,|
 z2 G2 G2 G2 | A3 B c2 B2- | BAGF EDCB, | A,2 D2 D2 D2 | E2 B,2 C2 D2 | E4 G4 | G2 G2 A3 B | %62
w: qu'en ce tour-|ment il meu- *||re, qu'en ce tour-|ment il meu- *||re, qu'en ce tour-|
 c2 B3 AGF | EDCB, A,2 A2- |"^#" A2 G2 A4- | A8 |] %66
w: ment il _ _ _|_ _ _ _ _ meu-|* * re.|_|
V:2
 z8 | z8 | F8 | E6 E2 | D3 E FG F2- | FEED/C/ DC G2- | GF F2 G2 FE | D2 E2 F4 | E2 C2 D2 D2 | %9
w: ||Au-|pres de|vous, _ _ _ _|_ _ _ _ _ _ _ _|||* * * se-|
 F2 F2 E3 D/C/ | D4 C4 | z2 C2 D2 D2 | F2 F2 E4 | D4 z4 | z4 z2 G2 | G2 G2 A3 B | c2 B3 AGF | %17
w: cre- te- ment de- *|meu- re,|se- cre- te-|ment de- meu-|re,|se-|cre- te- ment de-|meu- * * * *|
 EDCB, A,2 A2- | A2 GF G2 E2 | G2 G2 ABcA | B4 A2 E2 | E2 E2 G2 G2 | G2 G2 A2 A2 | G3 F E2 G2- | %24
w: * * * * re, se-|* * * cre- te-|ment de- meu- * * *|* re, mon|pou- vre coeur sans|que nul le con-|for- * * *|
 G2 FE D2 B2 | c2 A2 B3 A | GF E3 D D2 | E4 z4 | z4 A4 | A2 A2 c4- | c2 BA G2 G2 | G2 A2 B2 B2 | %32
w: |||te,|et|si lan- guir|_ _ _ _ pour|la dou- leur qu'il|
 c4 B2 G2 | A2 A2 G2 FE | F2 F2 EFGA | Bc d3 c c2- | c2 B2 c2 C2 | D2 E3 D D2 | E2 DC D4 | %39
w: por- te, et|si lan- guis pour _|la dou- leur _ _ _|_ _ _ qu'il por-|* * te, dou-|leur qu'il _ por-|* * * te,|
 z2 E2 GFED | E3 D/C/ D4 | C2 F4 E2- | E2 E2 D3 E | FG F4 ED | C3 B, C2 D2 | E4 z4 | F8 | E6 E2 | %48
w: qu'il por- * * *||te, puis- que|_ vou- lez, _|_ _ _ _ _|||puis-|que vou-|
 D3 E FG F2- | FEED/C/ DC G2- | GF F2 G2 FE | D2 E2 F4 | E2 C2 D2 D2 | F2 F2 E3 D/C/ | D4 C4 | %55
w: lez, _ _ _ _|_ _ _ _ _ _ _ _||* qu'en ce|tour- ment il meu-|re, il meu- * *|* re,|
 z2 C2 D2 D2 | F2 F2 E4 | D4 z4 | z4 z2 G2 | G2 G2 A3 B | c2 B3 AGF | EDCB, A,2 A2- | A2 GF G2 E2 | %63
w: qu'en ce tour-|ment il meu-|re,|qu'en|ce tour- ment il|meu- * * * *|||
 G2 G2 ABcA | B4 A4- | A8 |] %66
w: re, il meu- * * *|* re.|_|
V:3
 F8 | E6 E2 | D3 E F2 F2 | CDEF G4- | G2 G2 DEFG | A2 A2 G3 F/E/ | D2 D2 E2 E2 | G2 G2 F2 ED | %8
w: Au-|pres de|vous, _ _ _|_ _ _ _ _|||* se- cre- te-|ment de- meu- * *|
 A2 A2 G4 | F4 z4 | G4 A2 A2 | c2 c2 B4 | A4 z2 G2 | G2 G2 A3 B | c2 B3 AGF | E2 G2 F4 | %16
w: re, [de- meu-|re,]|se- cre- te-|ment de- meu-|re, se-|cre- te- ment de|meu- * * * *||
 E2 E2 E2 E2 | E2 E2 F4 | E2 E2 E2 E2 | E2 E2 F4 | E4 z2 A2 | A2 A2 E3 F | G2 E2 F4 | z2 E2 E2 E2 | %24
w: re, se- cre- te-|ment de- meu-|re, se- cre- te-|ment de- meu-|re, mon|pou- vre coeur, _|_ _ _|mon pou- vre|
 G2 G2 G2 G2 | A2 A2 G3 F | EFGE F4 | E2 E2 A3 G/F/ | E2 D2 D2 C2 | F4 E2 A2 | A2 A2 c4- | %31
w: coeur sans que nul|le con- for- *||te, sans que _ _|_ nul le con-|for- te, et|si lan- guis|
 c2 BA G2 G2 | A2 A2 G4 | F4 E2 D2- | DEFG A2 G2 | G2 G2 c3 B/A/ | G2 G2 A2 A2 | G2 FE F2 F2 | %38
w: _ _ _ _ pour|la dou- leur|qu'il por- *||te, qu'il por- * *|te, dou- leur qu'il|por- * * te, dou-|
 EFGA Bc d2- | dc c4 B2 | c2 A2 G4 | A2 F3 GAB | c2 G3 ABc | d2 D2 z4 | F8 | E6 E2 | D3 E F2 F2 | %47
w: leur _ _ _ _ _ qu'il-|* * por- *||te, puis- * * *|que vou- * * *|* lez,|puis-|que vou-|lez, _ _ puis-|
 CDEF G4- | G2 G2 DEFG | A2 A2 G3 F/E/ | D2 D2 E2 E2 | G2 G2 F2 ED | A2 A2 G4 | F4 z4 | G4 A2 A2 | %55
w: que _ _ _ _|_ vou- lez, _ _ _|_ puis- que _ _|_ vou- lez qu'en|ce tour- ment _ _|_ il meu-|re,|qu'en ce tour-|
 c2 c2 B4 | A6 G2 | G2 G2 A3 B | c2 B3 AGF | E2 G2 F4 | E2 E2 E2 E2 | E2 E2 F4 | E2 E2 E2 E2 | %63
w: ment il meu-|re, qu'en|ce tour- ment _|_ il _ _ _|_ _ meu-|re, qu'en ce tour-|ment il meu-|re, qu'en ce tour-|
 E2 E2 F4 | E4 A4- | A8 |] %66
w: ment il meu-|* re.|_|

